X:2870
T:Charlie Hunter
T:Cape Breton Jig #1
M:6/8
L:1/8
Q:1/4=180
R:Jig
N:Played as a set with Cape Breton #2 and McGurk'
D:Music at Matt Molloy'
Z:Dave Mos
K:D
DFA DFB|Adf a2 g|e>ff Bcd|ecA GFE|!
D2 A DFB|Adf a2 g|f2 a gec|[1edc d3:|[2edc dfa||!
afd d2 =c|BGF G2 F|EGB e2 d|cA^G Aag|!
fdA DFA|GBd g2 g|f2 a gec|edc d3:|!


